X: 20172
T: DEPARTED FRIENDS
C: Copyright.--J. M.
Q: "Slow and with feeling."
%R: air, strathspey
B: W. Hamilton "Universal Tune-Book" Vol. 2 Glasgow 1846 p.17 #2
S: http://s3-eu-west-1.amazonaws.com/itma.dl.printmaterial/book_pdfs/hamiltonvol2web.pdf
Z: 2016 John Chambers <jc:trillian.mit.edu>
M: C
L: 1/8
K: A
%%stretchstaff 0
% - - - - - - - - - - - - - - - - - - - - - - - - -
e |\
A>Bce f<dBG | A<cB<d c<agf |\
e>dcB A>cd<f | e<cB^G A2 A, :|\
E |\
E>CB,D C<A,A,>B, | CDB,G FDE^G |
A<EAc d>cB<d | e<cA^G A2 A, :|\
|: (a/b/) |\
c'>ag<e d<BGE | a>c'ba g>^feg |\
f>edB c<eGE | e<cB^G A2 A, :|
% - - - - - - - - - - - - - - - - - - - - - - - - -

%%sep 1 1 500
%%sep 1 1 500

